X: 43
T:Montarde Branle
M:C|
L:1/4
R:Branle
N:Second part repeated as many times as there are dancers
B:Thoinot Arbeau : Orchesographie, 1589
Z:Steve Mansfield March 2001
K:GDor
GA BG | cA BG | GG GG | FE DC |
GA BG | cA BG | FG/F/ ED/C/ | CD/B,/ C z ::
cd/c/ BA | BG F2 :|
<end>
<start>
